img/main-page/cards/03.svg

<svg width="52" height="61" viewBox="0 0 52 61" fill="none" xmlns="http://www.w3.org/2000/svg">
<path d="M13.5 0.375L12.7993 0.727051L12.6609 1.4978L13.1958 2.07031L13.5 2.125L14.2007 1.77295L14.3391 1.0022L13.8042 0.429688L13.5 0.375ZM20.5 0.375L19.7993 0.727051L19.6609 1.4978L20.1958 2.07031L20.5 2.125L21.2007 1.77295L21.3391 1.0022L20.8042 0.429688L20.5 0.375ZM27.5 0.375L26.7993 0.727051L26.6609 1.4978L27.1958 2.07031L27.5 2.125L28.2007 1.77295L28.3391 1.0022L27.8042 0.429688L27.5 0.375ZM33.625 0.375L32.9243 0.727051L32.7859 1.4978L33.3208 2.07031L33.625 2.125L34.3257 1.77295L34.4641 1.0022L33.9292 0.429688L33.625 0.375ZM12.3738 3.68701L11.6731 4.03735L11.5347 4.80981L12.0696 5.38232L12.3738 5.43701L13.0745 5.08496L13.2129 4.3125L12.678 3.73999L12.3738 3.68701ZM19.3738 3.68701L18.6731 4.03735L18.5347 4.80981L19.0696 5.38232L19.3738 5.43701L20.0745 5.08496L20.2129 4.3125L19.678 3.73999L19.3738 3.68701ZM26.3738 3.68701L25.6731 4.03735L25.5347 4.80981L26.0696 5.38232L26.3738 5.43701L27.0745 5.08496L27.2129 4.3125L26.678 3.73999L26.3738 3.68701ZM32.4988 3.68701L31.7981 4.03735L31.6597 4.80981L32.1946 5.38232L32.4988 5.43701L33.1995 5.08496L33.3379 4.3125L32.803 3.73999L32.4988 3.68701ZM12.0354 7.14087L11.333 7.49121L11.1963 8.26367L11.7312 8.83618L12.0354 8.89087L12.7361 8.53882L12.8745 7.76807L12.3379 7.19556L12.0354 7.14087ZM19.0354 7.14087L18.333 7.49121L18.1963 8.26367L18.7312 8.83618L19.0354 8.89087L19.7361 8.53882L19.8745 7.76807L19.3379 7.19556L19.0354 7.14087ZM26.0354 7.14087L25.333 7.49121L25.1963 8.26367L25.7312 8.83618L26.0354 8.89087L26.7361 8.53882L26.8745 7.76807L26.3379 7.19556L26.0354 7.14087ZM32.1604 7.14087L31.458 7.49121L31.3213 8.26367L31.8562 8.83618L32.1604 8.89087L32.8611 8.53882L32.9995 7.76807L32.4629 7.19556L32.1604 7.14087ZM14.7339 8.8396L14.0332 9.19165L13.8948 9.9624L14.4297 10.5349L14.7339 10.5896L15.4346 10.2393L15.573 9.4668L15.0381 8.89429L14.7339 8.8396ZM21.7339 8.8396L21.0332 9.19165L20.8948 9.9624L21.4297 10.5349L21.7339 10.5896L22.4346 10.2393L22.573 9.4668L22.0381 8.89429L21.7339 8.8396ZM28.7339 8.8396L28.0332 9.19165L27.8948 9.9624L28.4297 10.5349L28.7339 10.5896L29.4346 10.2393L29.573 9.4668L29.0381 8.89429L28.7339 8.8396ZM34.8589 8.8396L34.1582 9.19165L34.0198 9.9624L34.5547 10.5349L34.8589 10.5896L35.5596 10.2393L35.698 9.4668L35.1631 8.89429L34.8589 8.8396ZM15.8772 11.8542L15.1748 12.2063L15.0381 12.9771L15.573 13.5496L15.8772 13.6042L16.5779 13.2539L16.7163 12.4814L16.1797 11.9089L15.8772 11.8542ZM22.8772 11.8542L22.1748 12.2063L22.0381 12.9771L22.573 13.5496L22.8772 13.6042L23.5779 13.2539L23.7163 12.4814L23.1797 11.9089L22.8772 11.8542ZM29.8772 11.8542L29.1748 12.2063L29.0381 12.9771L29.573 13.5496L29.8772 13.6042L30.5779 13.2539L30.7163 12.4814L30.1797 11.9089L29.8772 11.8542ZM36.0022 11.8542L35.2998 12.2063L35.1631 12.9771L35.698 13.5496L36.0022 13.6042L36.7029 13.2539L36.8413 12.4814L36.3047 11.9089L36.0022 11.8542ZM15.0261 15.2432L14.3254 15.5952L14.187 16.366L14.7236 16.9385L15.0261 16.9932L15.7285 16.6428L15.8652 15.8704L15.3303 15.2979L15.0261 15.2432ZM22.0261 15.2432L21.3254 15.5952L21.187 16.366L21.7236 16.9385L22.0261 16.9932L22.7285 16.6428L22.8652 15.8704L22.3303 15.2979L22.0261 15.2432ZM29.0261 15.2432L28.3254 15.5952L28.187 16.366L28.7236 16.9385L29.0261 16.9932L29.7285 16.6428L29.8652 15.8704L29.3303 15.2979L29.0261 15.2432ZM35.1511 15.2432L34.4504 15.5952L34.312 16.366L34.8486 16.9385L35.1511 16.9932L35.8535 16.6428L35.9902 15.8704L35.4553 15.2979L35.1511 15.2432ZM8.6875 19.449L8.20215 19.772C8.20215 19.772 7.17023 20.4584 6.12744 21.4143C5.08465 22.3702 3.875 23.526 3.875 25.0938V27.5H1.95068C1.07166 27.5 0.375 28.2484 0.375 29.1047V32.022C0.375 32.8785 1.07166 33.625 1.95068 33.625H3.875V40.1875V45.875H1.95068C1.07166 45.875 0.375 46.6234 0.375 47.4797V50.397C0.375 51.2535 1.07166 52 1.95068 52H3.875V54.4062C3.875 55.974 5.08465 57.1298 6.12744 58.0857C7.17023 59.0416 8.20215 59.728 8.20215 59.728L8.6875 60.051L9.17285 59.728C9.17285 59.728 10.2048 59.0416 11.2476 58.0857C11.7208 57.6519 12.2117 57.1607 12.625 56.6245C13.0383 57.1607 13.5292 57.6519 14.0024 58.0857C15.0452 59.0416 16.0771 59.728 16.0771 59.728L16.5625 60.051L17.0479 59.728C17.0479 59.728 18.0798 59.0416 19.1226 58.0857C19.5958 57.6519 20.0867 57.1607 20.5 56.6245C20.9133 57.1607 21.4042 57.6519 21.8774 58.0857C22.9202 59.0416 23.9521 59.728 23.9521 59.728L24.4375 60.051L24.9229 59.728C24.9229 59.728 25.9548 59.0416 26.9976 58.0857C27.4708 57.6519 27.9617 57.1607 28.375 56.6245C28.7883 57.1607 29.2792 57.6519 29.7524 58.0857C30.7952 59.0416 31.8271 59.728 31.8271 59.728L32.3125 60.051L32.7979 59.728C32.7979 59.728 33.8298 59.0416 34.8726 58.0857C35.3458 57.6519 35.8367 57.1607 36.25 56.6245C36.6633 57.1607 37.1542 57.6519 37.6274 58.0857C38.6702 59.0416 39.7021 59.728 39.7021 59.728L40.1875 60.051L40.6729 59.728C40.6729 59.728 41.7048 59.0416 42.7476 58.0857C43.7903 57.1298 45 55.974 45 54.4062V52H46.75C46.8659 52.0016 46.9811 51.9802 47.0887 51.937C47.1963 51.8937 47.2942 51.8296 47.3768 51.7481C47.4593 51.6667 47.5249 51.5697 47.5697 51.4627C47.6144 51.3558 47.6375 51.241 47.6375 51.125C47.6375 51.009 47.6144 50.8942 47.5697 50.7873C47.5249 50.6803 47.4593 50.5833 47.3768 50.5019C47.2942 50.4204 47.1963 50.3563 47.0887 50.313C46.9811 50.2698 46.8659 50.2484 46.75 50.25H45V47.625H46.75C46.8659 47.6266 46.9811 47.6052 47.0887 47.562C47.1963 47.5187 47.2942 47.4546 47.3768 47.3731C47.4593 47.2917 47.5249 47.1947 47.5697 47.0877C47.6144 46.9808 47.6375 46.866 47.6375 46.75C47.6375 46.634 47.6144 46.5192 47.5697 46.4123C47.5249 46.3053 47.4593 46.2083 47.3768 46.1269C47.2942 46.0454 47.1963 45.9813 47.0887 45.938C46.9811 45.8948 46.8659 45.8734 46.75 45.875H45V40.1875V33.625H46.75C46.8659 33.6266 46.9811 33.6052 47.0887 33.562C47.1963 33.5187 47.2942 33.4546 47.3768 33.3731C47.4593 33.2917 47.5249 33.1947 47.5697 33.0877C47.6144 32.9808 47.6375 32.866 47.6375 32.75C47.6375 32.634 47.6144 32.5192 47.5697 32.4123C47.5249 32.3053 47.4593 32.2083 47.3768 32.1269C47.2942 32.0454 47.1963 31.9813 47.0887 31.938C46.9811 31.8948 46.8659 31.8734 46.75 31.875H45V29.25H46.75C46.8659 29.2516 46.9811 29.2302 47.0887 29.187C47.1963 29.1437 47.2942 29.0796 47.3768 28.9981C47.4593 28.9167 47.5249 28.8197 47.5697 28.7127C47.6144 28.6058 47.6375 28.491 47.6375 28.375C47.6375 28.259 47.6144 28.1442 47.5697 28.0373C47.5249 27.9303 47.4593 27.8333 47.3768 27.7519C47.2942 27.6704 47.1963 27.6063 47.0887 27.563C46.9811 27.5198 46.8659 27.4984 46.75 27.5H45V25.0938C45 23.526 43.7903 22.3702 42.7476 21.4143C41.7048 20.4584 40.6729 19.772 40.6729 19.772L40.1875 19.449L39.7021 19.772C39.7021 19.772 38.6702 20.4584 37.6274 21.4143C37.1542 21.8481 36.6633 22.3393 36.25 22.8755C35.8367 22.3393 35.3458 21.8481 34.8726 21.4143C33.8298 20.4584 32.7979 19.772 32.7979 19.772L32.3125 19.449L31.8271 19.772C31.8271 19.772 30.8677 20.4103 29.8669 21.3101C29.3543 21.771 28.8059 22.2825 28.3647 22.8669C27.9598 22.3298 27.4695 21.8469 26.9976 21.4143C25.9548 20.4584 24.9229 19.772 24.9229 19.772L24.4375 19.449L23.9521 19.772C23.9521 19.772 22.9202 20.4584 21.8774 21.4143C21.4037 21.8486 20.8999 22.3268 20.4863 22.8635C20.0819 22.3279 19.5934 21.8459 19.1226 21.4143C18.0798 20.4584 17.0479 19.772 17.0479 19.772L16.5625 19.449L16.0771 19.772C16.0771 19.772 15.0452 20.4584 14.0024 21.4143C13.5292 21.8481 13.0383 22.3393 12.625 22.8755C12.2117 22.3393 11.7208 21.8481 11.2476 21.4143C10.2048 20.4584 9.17285 19.772 9.17285 19.772L8.6875 19.449ZM32.3108 21.6108C32.6237 21.8316 33.0044 22.0744 33.6899 22.7029C34.6159 23.5517 35.375 24.6927 35.375 25.0938H37.125C37.125 24.6927 37.8841 23.5517 38.8101 22.7029C39.4947 22.0753 39.874 21.8338 40.1875 21.6125C40.501 21.8338 40.8803 22.0753 41.5649 22.7029C42.4909 23.5517 43.25 24.6927 43.25 25.0938V27.5V33.625V40.1875V45.875V52V54.4062C43.25 54.8073 42.4909 55.9483 41.5649 56.7971C40.8803 57.4247 40.501 57.6662 40.1875 57.8875C39.874 57.6662 39.4947 57.4247 38.8101 56.7971C37.8841 55.9483 37.125 54.8073 37.125 54.4062H35.375C35.375 54.8073 34.6159 55.9483 33.6899 56.7971C33.0053 57.4247 32.626 57.6662 32.3125 57.8875C31.999 57.6662 31.6197 57.4247 30.9351 56.7971C30.0091 55.9483 29.25 54.8073 29.25 54.4062H27.5C27.5 54.8073 26.7409 55.9483 25.8149 56.7971C25.1303 57.4247 24.751 57.6662 24.4375 57.8875C24.124 57.6662 23.7447 57.4247 23.0601 56.7971C22.1341 55.9483 21.375 54.8073 21.375 54.4062H19.625C19.625 54.8073 18.8659 55.9483 17.9399 56.7971C17.2553 57.4247 16.876 57.6662 16.5625 57.8875C16.249 57.6662 15.8697 57.4247 15.1851 56.7971C14.2591 55.9483 13.5 54.8073 13.5 54.4062H11.75C11.75 54.8073 10.9909 55.9483 10.0649 56.7971C9.3803 57.4247 9.00097 57.6662 8.6875 57.8875C8.37403 57.6662 7.9947 57.4247 7.31006 56.7971C6.3841 55.9483 5.625 54.8073 5.625 54.4062V40.1875V25.0938C5.625 24.6927 6.3841 23.5517 7.31006 22.7029C7.9947 22.0753 8.37403 21.8338 8.6875 21.6125C9.00097 21.8338 9.3803 22.0753 10.0649 22.7029C10.9909 23.5517 11.75 24.6927 11.75 25.0938H13.5C13.5 24.6927 14.2591 23.5517 15.1851 22.7029C15.8697 22.0753 16.249 21.8338 16.5625 21.6125C16.876 21.8338 17.2553 22.0753 17.9399 22.7029C18.8659 23.5517 19.625 24.6927 19.625 25.0938H21.375C21.375 24.6927 22.1341 23.5517 23.0601 22.7029C23.7447 22.0753 24.124 21.8338 24.4375 21.6125C24.751 21.8338 25.1303 22.0753 25.8149 22.7029C26.7409 23.5517 27.5 24.6927 27.5 25.0938H29.25C29.25 25.0647 29.2521 25.0311 29.2568 24.998L29.2141 24.9912C29.2141 24.9906 29.2141 24.9901 29.2141 24.9895L29.2568 24.9946C29.3237 24.5102 30.1444 23.4136 31.0376 22.6106C31.6836 22.0298 32.0101 21.8233 32.3108 21.6108ZM12.625 26.625L11.9243 26.9771L11.7859 27.7478L12.3208 28.3203L12.625 28.375L13.3257 28.0229L13.4641 27.2522L12.9292 26.6797L12.625 26.625ZM20.5 26.625L19.7993 26.9771L19.6609 27.7478L20.1958 28.3203L20.5 28.375L21.2007 28.0229L21.3391 27.2522L20.8042 26.6797L20.5 26.625ZM28.375 26.625L27.6743 26.9771L27.5359 27.7478L28.0708 28.3203L28.375 28.375L29.0757 28.0229L29.2141 27.2522L28.6792 26.6797L28.375 26.625ZM36.25 26.625L35.5493 26.9771L35.4109 27.7478L35.9458 28.3203L36.25 28.375L36.9507 28.0229L37.0891 27.2522L36.5542 26.6797L36.25 26.625ZM50.25 27.5C50.0179 27.5 49.7954 27.5922 49.6313 27.7563C49.4672 27.9204 49.375 28.1429 49.375 28.375C49.375 28.6071 49.4672 28.8296 49.6313 28.9937C49.7954 29.1578 50.0179 29.25 50.25 29.25C50.4821 29.25 50.7046 29.1578 50.8687 28.9937C51.0328 28.8296 51.125 28.6071 51.125 28.375C51.125 28.1429 51.0328 27.9204 50.8687 27.7563C50.7046 27.5922 50.4821 27.5 50.25 27.5ZM2.125 29.25H3.875V31.875H2.125V29.25ZM12.625 30.125L11.9243 30.4771L11.7859 31.2478L12.3208 31.8203L12.625 31.875L13.3257 31.5229L13.4641 30.7522L12.9292 30.1797L12.625 30.125ZM20.5 30.125L19.7993 30.4771L19.6609 31.2478L20.1958 31.8203L20.5 31.875L21.2007 31.5229L21.3391 30.7522L20.8042 30.1797L20.5 30.125ZM28.375 30.125L27.6743 30.4771L27.5359 31.2478L28.0708 31.8203L28.375 31.875L29.0757 31.5229L29.2141 30.7522L28.6792 30.1797L28.375 30.125ZM36.25 30.125L35.5493 30.4771L35.4109 31.2478L35.9458 31.8203L36.25 31.875L36.9507 31.5229L37.0891 30.7522L36.5542 30.1797L36.25 30.125ZM50.25 31.875C50.0179 31.875 49.7954 31.9672 49.6313 32.1313C49.4672 32.2954 49.375 32.5179 49.375 32.75C49.375 32.9821 49.4672 33.2046 49.6313 33.3687C49.7954 33.5328 50.0179 33.625 50.25 33.625C50.4821 33.625 50.7046 33.5328 50.8687 33.3687C51.0328 33.2046 51.125 32.9821 51.125 32.75C51.125 32.5179 51.0328 32.2954 50.8687 32.1313C50.7046 31.9672 50.4821 31.875 50.25 31.875ZM12.625 33.625L11.9243 33.9771L11.7859 34.7478L12.3208 35.3203L12.625 35.375L13.3257 35.0229L13.4641 34.2522L12.9292 33.6797L12.625 33.625ZM20.5 33.625L19.7993 33.9771L19.6609 34.7478L20.1958 35.3203L20.5 35.375L21.2007 35.0229L21.3391 34.2522L20.8042 33.6797L20.5 33.625ZM28.375 33.625L27.6743 33.9771L27.5359 34.7478L28.0708 35.3203L28.375 35.375L29.0757 35.0229L29.2141 34.2522L28.6792 33.6797L28.375 33.625ZM36.25 33.625L35.5493 33.9771L35.4109 34.7478L35.9458 35.3203L36.25 35.375L36.9507 35.0229L37.0891 34.2522L36.5542 33.6797L36.25 33.625ZM12.625 37.125L11.9243 37.4771L11.7859 38.2478L12.3208 38.8203L12.625 38.875L13.3257 38.5229L13.4641 37.7522L12.9292 37.1797L12.625 37.125ZM20.5 37.125L19.7993 37.4771L19.6609 38.2478L20.1958 38.8203L20.5 38.875L21.2007 38.5229L21.3391 37.7522L20.8042 37.1797L20.5 37.125ZM28.375 37.125L27.6743 37.4771L27.5359 38.2478L28.0708 38.8203L28.375 38.875L29.0757 38.5229L29.2141 37.7522L28.6792 37.1797L28.375 37.125ZM36.25 37.125L35.5493 37.4771L35.4109 38.2478L35.9458 38.8203L36.25 38.875L36.9507 38.5229L37.0891 37.7522L36.5542 37.1797L36.25 37.125ZM12.625 40.625L11.9243 40.9771L11.7859 41.7478L12.3208 42.3203L12.625 42.375L13.3257 42.0229L13.4641 41.2522L12.9292 40.6797L12.625 40.625ZM20.5 40.625L19.7993 40.9771L19.6609 41.7478L20.1958 42.3203L20.5 42.375L21.2007 42.0229L21.3391 41.2522L20.8042 40.6797L20.5 40.625ZM28.375 40.625L27.6743 40.9771L27.5359 41.7478L28.0708 42.3203L28.375 42.375L29.0757 42.0229L29.2141 41.2522L28.6792 40.6797L28.375 40.625ZM36.25 40.625L35.5493 40.9771L35.4109 41.7478L35.9458 42.3203L36.25 42.375L36.9507 42.0229L37.0891 41.2522L36.5542 40.6797L36.25 40.625ZM12.625 44.125L11.9243 44.4771L11.7859 45.2478L12.3208 45.8203L12.625 45.875L13.3257 45.5229L13.4641 44.7522L12.9292 44.1797L12.625 44.125ZM20.5 44.125L19.7993 44.4771L19.6609 45.2478L20.1958 45.8203L20.5 45.875L21.2007 45.5229L21.3391 44.7522L20.8042 44.1797L20.5 44.125ZM28.375 44.125L27.6743 44.4771L27.5359 45.2478L28.0708 45.8203L28.375 45.875L29.0757 45.5229L29.2141 44.7522L28.6792 44.1797L28.375 44.125ZM36.25 44.125L35.5493 44.4771L35.4109 45.2478L35.9458 45.8203L36.25 45.875L36.9507 45.5229L37.0891 44.7522L36.5542 44.1797L36.25 44.125ZM50.25 45.875C50.0179 45.875 49.7954 45.9672 49.6313 46.1313C49.4672 46.2954 49.375 46.5179 49.375 46.75C49.375 46.9821 49.4672 47.2046 49.6313 47.3687C49.7954 47.5328 50.0179 47.625 50.25 47.625C50.4821 47.625 50.7046 47.5328 50.8687 47.3687C51.0328 47.2046 51.125 46.9821 51.125 46.75C51.125 46.5179 51.0328 46.2954 50.8687 46.1313C50.7046 45.9672 50.4821 45.875 50.25 45.875ZM2.125 47.625H3.875V50.25H2.125V47.625ZM12.625 47.625L11.9243 47.9771L11.7859 48.7478L12.3208 49.3203L12.625 49.375L13.3257 49.0229L13.4641 48.2522L12.9292 47.6797L12.625 47.625ZM20.5 47.625L19.7993 47.9771L19.6609 48.7478L20.1958 49.3203L20.5 49.375L21.2007 49.0229L21.3391 48.2522L20.8042 47.6797L20.5 47.625ZM28.375 47.625L27.6743 47.9771L27.5359 48.7478L28.0708 49.3203L28.375 49.375L29.0757 49.0229L29.2141 48.2522L28.6792 47.6797L28.375 47.625ZM36.25 47.625L35.5493 47.9771L35.4109 48.7478L35.9458 49.3203L36.25 49.375L36.9507 49.0229L37.0891 48.2522L36.5542 47.6797L36.25 47.625ZM50.25 50.25C50.0179 50.25 49.7954 50.3422 49.6313 50.5063C49.4672 50.6704 49.375 50.8929 49.375 51.125C49.375 51.3571 49.4672 51.5796 49.6313 51.7437C49.7954 51.9078 50.0179 52 50.25 52C50.4821 52 50.7046 51.9078 50.8687 51.7437C51.0328 51.5796 51.125 51.3571 51.125 51.125C51.125 50.8929 51.0328 50.6704 50.8687 50.5063C50.7046 50.3422 50.4821 50.25 50.25 50.25ZM12.625 51.125L11.9243 51.4771L11.7859 52.2478L12.3208 52.8203L12.625 52.875L13.3257 52.5229L13.4641 51.7522L12.9292 51.1797L12.625 51.125ZM20.5 51.125L19.7993 51.4771L19.6609 52.2478L20.1958 52.8203L20.5 52.875L21.2007 52.5229L21.3391 51.7522L20.8042 51.1797L20.5 51.125ZM28.375 51.125L27.6743 51.4771L27.5359 52.2478L28.0708 52.8203L28.375 52.875L29.0757 52.5229L29.2141 51.7522L28.6792 51.1797L28.375 51.125ZM36.25 51.125L35.5493 51.4771L35.4109 52.2478L35.9458 52.8203L36.25 52.875L36.9507 52.5229L37.0891 51.7522L36.5542 51.1797L36.25 51.125Z" fill="#E4B564"/>
</svg>

<svg width="52" height="61" fill="none" xmlns="http://www.w3.org/2000/svg"><path d="M13.5.375l-.7.352-.14.77.536.573.304.055.7-.352.14-.77-.536-.573L13.5.375zm7 0l-.7.352-.14.77.536.573.304.055.7-.352.14-.77-.536-.573L20.5.375zm7 0l-.7.352-.14.77.536.573.304.055.7-.352.14-.77-.536-.573L27.5.375zm6.125 0l-.7.352-.14.77.536.573.304.055.7-.352.14-.77-.536-.573-.304-.055zM12.374 3.687l-.7.35-.14.773.536.572.304.055.7-.352.139-.772-.535-.573-.304-.053zm7 0l-.7.35-.14.773.536.572.304.055.7-.352.139-.772-.535-.573-.304-.053zm7 0l-.7.35-.14.773.536.572.304.055.7-.352.139-.772-.535-.573-.304-.053zm6.125 0l-.7.35-.14.773.536.572.304.055.7-.352.139-.772-.535-.573-.304-.053zM12.035 7.141l-.702.35-.137.773.535.572.304.055.701-.352.138-.77-.536-.573-.303-.055zm7 0l-.702.35-.137.773.535.572.304.055.701-.352.139-.77-.537-.573-.303-.055zm7 0l-.702.35-.137.773.535.572.304.055.701-.352.139-.77-.537-.573-.303-.055zm6.125 0l-.702.35-.137.773.535.572.304.055.701-.352.139-.77-.537-.573-.303-.055zM14.734 8.84l-.7.352-.14.77.536.573.304.055.7-.35.139-.773-.535-.573-.304-.054zm7 0l-.7.352-.14.77.536.573.304.055.7-.35.139-.773-.535-.573-.304-.054zm7 0l-.7.352-.14.77.536.573.304.055.7-.35.139-.773-.535-.573-.304-.054zm6.125 0l-.7.352-.14.77.536.573.304.055.7-.35.139-.773-.535-.573-.304-.054zm-18.982 3.014l-.702.352-.137.771.535.573.304.054.7-.35.14-.773-.537-.572-.303-.055zm7 0l-.702.352-.137.771.535.573.304.054.7-.35.14-.773-.537-.572-.303-.055zm7 0l-.702.352-.137.771.535.573.304.054.7-.35.14-.773-.537-.572-.303-.055zm6.125 0l-.702.352-.137.771.535.573.304.054.7-.35.14-.773-.537-.572-.303-.055zm-20.976 3.39l-.7.351-.139.771.537.573.302.054.703-.35.136-.773-.535-.572-.304-.055zm7 0l-.7.351-.139.771.537.573.302.054.703-.35.136-.773-.535-.572-.304-.055zm7 0l-.7.351-.139.771.537.573.302.054.703-.35.136-.773-.535-.572-.304-.055zm6.125 0l-.7.351-.139.771.537.573.302.054.702-.35.137-.773-.535-.572-.304-.055zM8.687 19.448l-.485.323s-1.032.686-2.075 1.642c-1.042.956-2.252 2.112-2.252 3.68V27.5H1.951c-.88 0-1.576.748-1.576 1.605v2.917c0 .857.697 1.603 1.576 1.603h1.924v12.25H1.951c-.88 0-1.576.748-1.576 1.605v2.917c0 .857.697 1.603 1.576 1.603h1.924v2.406c0 1.568 1.21 2.724 2.252 3.68a19.163 19.163 0 002.075 1.642l.486.323.485-.323s1.032-.686 2.075-1.642c.473-.434.964-.925 1.377-1.462.413.537.904 1.028 1.377 1.462a19.197 19.197 0 002.075 1.642l.485.323.486-.323s1.032-.686 2.075-1.642c.473-.434.964-.925 1.377-1.462.413.537.904 1.028 1.377 1.462a19.197 19.197 0 002.075 1.642l.485.323.486-.323s1.032-.686 2.075-1.642c.473-.434.964-.925 1.377-1.462.413.537.904 1.028 1.377 1.462a19.197 19.197 0 002.075 1.642l.485.323.486-.323s1.032-.686 2.075-1.642c.473-.434.964-.925 1.377-1.462.413.537.904 1.028 1.377 1.462a19.197 19.197 0 002.075 1.642l.486.323.485-.323s1.032-.686 2.075-1.642C43.79 57.13 45 55.974 45 54.406V52h1.75a.877.877 0 00.82-1.213.877.877 0 00-.82-.537H45v-2.625h1.75a.877.877 0 00.82-1.213.877.877 0 00-.82-.537H45v-12.25h1.75a.877.877 0 00.82-1.213.877.877 0 00-.82-.537H45V29.25h1.75a.877.877 0 00.82-1.213.877.877 0 00-.82-.537H45v-2.406c0-1.568-1.21-2.724-2.252-3.68-1.043-.956-2.075-1.642-2.075-1.642l-.486-.323-.485.323s-1.032.686-2.075 1.642c-.473.434-.964.925-1.377 1.461-.413-.536-.904-1.027-1.377-1.46-1.043-.957-2.075-1.643-2.075-1.643l-.486-.323-.485.323s-.96.638-1.96 1.538c-.513.461-1.061.973-1.502 1.557-.405-.537-.895-1.02-1.367-1.453-1.043-.956-2.075-1.642-2.075-1.642l-.485-.323-.486.323s-1.032.686-2.075 1.642c-.473.435-.977.913-1.39 1.45-.405-.536-.894-1.018-1.364-1.45-1.043-.956-2.075-1.642-2.075-1.642l-.485-.323-.486.323s-1.032.686-2.075 1.642c-.473.434-.964.925-1.377 1.461-.413-.536-.904-1.027-1.377-1.46-1.043-.957-2.075-1.643-2.075-1.643l-.486-.323zm23.624 2.162c.313.22.693.463 1.379 1.092.926.849 1.685 1.99 1.685 2.39h1.75c0-.4.76-1.541 1.685-2.39.685-.628 1.064-.87 1.377-1.09.314.22.693.462 1.378 1.09.926.849 1.685 1.99 1.685 2.39v29.313c0 .401-.76 1.542-1.685 2.391-.685.628-1.064.87-1.377 1.09-.314-.22-.693-.462-1.378-1.09-.926-.849-1.685-1.99-1.685-2.39h-1.75c0 .4-.76 1.541-1.685 2.39-.685.628-1.064.87-1.377 1.09-.314-.22-.693-.462-1.378-1.09-.926-.849-1.685-1.99-1.685-2.39H27.5c0 .4-.76 1.541-1.685 2.39-.685.628-1.064.87-1.378 1.09-.313-.22-.692-.462-1.377-1.09-.926-.849-1.685-1.99-1.685-2.39h-1.75c0 .4-.76 1.541-1.685 2.39-.685.628-1.064.87-1.378 1.09-.313-.22-.692-.462-1.377-1.09-.926-.849-1.685-1.99-1.685-2.39h-1.75c0 .4-.76 1.541-1.685 2.39-.685.628-1.064.87-1.377 1.09-.314-.22-.693-.462-1.378-1.09-.926-.849-1.685-1.99-1.685-2.39V25.093c0-.401.76-1.542 1.685-2.391.685-.628 1.064-.87 1.378-1.09.313.22.692.462 1.377 1.09.926.849 1.685 1.99 1.685 2.39h1.75c0-.4.76-1.541 1.685-2.39.685-.628 1.064-.87 1.377-1.09.314.22.693.462 1.378 1.09.926.849 1.685 1.99 1.685 2.39h1.75c0-.4.76-1.541 1.685-2.39.685-.628 1.064-.87 1.378-1.09.313.22.692.462 1.377 1.09.926.849 1.685 1.99 1.685 2.39h1.75c0-.028.002-.062.007-.095l-.043-.007v-.002l.043.006c.067-.485.887-1.581 1.78-2.384.647-.581.973-.788 1.274-1zm-19.686 5.014l-.7.352-.14.77.536.573.304.055.7-.352.14-.77-.536-.573-.304-.055zm7.875 0l-.7.352-.14.77.536.573.304.055.7-.352.14-.77-.536-.573-.304-.055zm7.875 0l-.7.352-.14.77.536.573.304.055.7-.352.14-.77-.536-.573-.304-.055zm7.875 0l-.7.352-.14.77.536.573.304.055.7-.352.14-.77-.536-.573-.304-.055zm14 .875a.875.875 0 100 1.75.875.875 0 000-1.75zM2.125 29.25h1.75v2.625h-1.75V29.25zm10.5.875l-.7.352-.14.77.536.573.304.055.7-.352.14-.77-.536-.573-.304-.055zm7.875 0l-.7.352-.14.77.536.573.304.055.7-.352.14-.77-.536-.573-.304-.055zm7.875 0l-.7.352-.14.77.536.573.304.055.7-.352.14-.77-.536-.573-.304-.055zm7.875 0l-.7.352-.14.77.536.573.304.055.7-.352.14-.77-.536-.573-.304-.055zm14 1.75a.875.875 0 100 1.75.875.875 0 000-1.75zm-37.625 1.75l-.7.352-.14.77.536.573.304.055.7-.352.14-.77-.536-.573-.304-.055zm7.875 0l-.7.352-.14.77.536.573.304.055.7-.352.14-.77-.536-.573-.304-.055zm7.875 0l-.7.352-.14.77.536.573.304.055.7-.352.14-.77-.536-.573-.304-.055zm7.875 0l-.7.352-.14.77.536.573.304.055.7-.352.14-.77-.536-.573-.304-.055zm-23.625 3.5l-.7.352-.14.77.536.573.304.055.7-.352.14-.77-.536-.573-.304-.055zm7.875 0l-.7.352-.14.77.536.573.304.055.7-.352.14-.77-.536-.573-.304-.055zm7.875 0l-.7.352-.14.77.536.573.304.055.7-.352.14-.77-.536-.573-.304-.055zm7.875 0l-.7.352-.14.77.536.573.304.055.7-.352.14-.77-.536-.573-.304-.055zm-23.625 3.5l-.7.352-.14.77.536.573.304.055.7-.352.14-.77-.536-.573-.304-.055zm7.875 0l-.7.352-.14.77.536.573.304.055.7-.352.14-.77-.536-.573-.304-.055zm7.875 0l-.7.352-.14.77.536.573.304.055.7-.352.14-.77-.536-.573-.304-.055zm7.875 0l-.7.352-.14.77.536.573.304.055.7-.352.14-.77-.536-.573-.304-.055zm-23.625 3.5l-.7.352-.14.77.536.573.304.055.7-.352.14-.77-.536-.573-.304-.055zm7.875 0l-.7.352-.14.77.536.573.304.055.7-.352.14-.77-.536-.573-.304-.055zm7.875 0l-.7.352-.14.77.536.573.304.055.7-.352.14-.77-.536-.573-.304-.055zm7.875 0l-.7.352-.14.77.536.573.304.055.7-.352.14-.77-.536-.573-.304-.055zm14 1.75a.875.875 0 100 1.75.875.875 0 000-1.75zm-48.125 1.75h1.75v2.625h-1.75v-2.625zm10.5 0l-.7.352-.14.77.536.573.304.055.7-.352.14-.77-.536-.573-.304-.055zm7.875 0l-.7.352-.14.77.536.573.304.055.7-.352.14-.77-.536-.573-.304-.055zm7.875 0l-.7.352-.14.77.536.573.304.055.7-.352.14-.77-.536-.573-.304-.055zm7.875 0l-.7.352-.14.77.536.573.304.055.7-.352.14-.77-.536-.573-.304-.055zm14 2.625a.875.875 0 100 1.75.875.875 0 000-1.75zm-37.625.875l-.7.352-.14.77.536.573.304.055.7-.352.14-.77-.536-.573-.304-.055zm7.875 0l-.7.352-.14.77.536.573.304.055.7-.352.14-.77-.536-.573-.304-.055zm7.875 0l-.7.352-.14.77.536.573.304.055.7-.352.14-.77-.536-.573-.304-.055zm7.875 0l-.7.352-.14.77.536.573.304.055.7-.352.14-.77-.536-.573-.304-.055z" fill="#E4B564"/></svg>
